libs/icons/src/svg/present.svg

<svg width="16" height="16" viewBox="0 0 16 16" fill="none" xmlns="http://www.w3.org/2000/svg">
<g clip-path="url(#clip0_3_3346)">
<path fill-rule="evenodd" clip-rule="evenodd" d="M4.42368 1.333C4.14353 1.32418 3.87132 1.42689 3.66682 1.61858C3.46771 1.80523 3.34863 2.06138 3.33393 2.33333C3.34863 2.60529 3.46771 2.86144 3.66682 3.04808C3.87132 3.23978 4.14353 3.34249 4.42368 3.33366C4.43068 3.33344 4.43767 3.33333 4.44467 3.33333H7.01744C6.91909 3.13464 6.79882 2.91913 6.65505 2.70525C6.15018 1.95418 5.43761 1.33333 4.44467 1.33333C4.43767 1.33333 4.43068 1.33322 4.42368 1.333ZM8 4L8.64234 3.82156C8.6981 4.02229 8.65682 4.23755 8.53076 4.40341C8.40469 4.56928 8.20833 4.66667 8 4.66667H4.45431C3.82509 4.6835 3.21442 4.45154 2.75496 4.02086C2.29275 3.58759 2.02136 2.98861 2.00037 2.35542L2.66667 2.33333L2.00037 2.31124C2.02136 1.67806 2.29275 1.07908 2.75496 0.645812C3.21454 0.215015 3.82541 -0.0169504 4.45481 1.46467e-05C6.08545 0.00432355 7.14743 1.04771 7.76162 1.96142C8.07386 2.42593 8.29165 2.88562 8.43122 3.22665C8.50142 3.39818 8.5529 3.5423 8.58738 3.64549C8.60464 3.69715 8.61771 3.73875 8.62679 3.76861C8.63133 3.78354 8.63488 3.79556 8.63746 3.80445L8.64061 3.81542L8.64165 3.8191L8.64234 3.82156C8.64241 3.82181 8.64234 3.82156 8 4ZM7.35802 4.17975C7.35808 4.17997 7.35807 4.17992 7.35802 4.17975V4.17975Z" fill="#202327"/>
<path fill-rule="evenodd" clip-rule="evenodd" d="M12.3332 1.61858C12.1287 1.42689 11.8565 1.32418 11.5763 1.333C11.5693 1.33322 11.5623 1.33333 11.5553 1.33333C10.5624 1.33333 9.84981 1.95418 9.34494 2.70525C9.20116 2.91913 9.08089 3.13464 8.98255 3.33333H11.5553C11.5623 3.33333 11.5693 3.33344 11.5763 3.33366C11.8565 3.34249 12.1287 3.23978 12.3332 3.04808C12.5323 2.86144 12.6514 2.60529 12.6661 2.33333C12.6514 2.06138 12.5323 1.80523 12.3332 1.61858ZM7.99999 4C7.35764 3.82156 7.35771 3.82132 7.35778 3.82106L7.35794 3.82048L7.35833 3.8191L7.35937 3.81542L7.36253 3.80445C7.36511 3.79556 7.36866 3.78354 7.3732 3.76861C7.38228 3.73875 7.39535 3.69715 7.41261 3.64549C7.44709 3.5423 7.49856 3.39818 7.56876 3.22665C7.70834 2.88562 7.92612 2.42593 8.23837 1.96142C8.85256 1.04771 9.91453 0.00432363 11.5452 1.46467e-05C12.1746 -0.0169504 12.7854 0.215015 13.245 0.645812C13.7072 1.07908 13.9786 1.67806 13.9996 2.31124C14.0001 2.32597 14.0001 2.3407 13.9996 2.35542C13.9786 2.98861 13.7072 3.58759 13.245 4.02086C12.7856 4.45154 12.1749 4.6835 11.5457 4.66667H7.99999C7.79165 4.66667 7.5953 4.56928 7.46923 4.40341C7.34316 4.23755 7.30188 4.02229 7.35764 3.82156L7.99999 4Z" fill="#202327"/>
<path fill-rule="evenodd" clip-rule="evenodd" d="M1.99998 8C2.36817 8 2.66665 8.29848 2.66665 8.66667V14C2.66665 14.1768 2.73688 14.3464 2.86191 14.4714C2.98693 14.5964 3.1565 14.6667 3.33331 14.6667H12.6666C12.8435 14.6667 13.013 14.5964 13.1381 14.4714C13.2631 14.3464 13.3333 14.1768 13.3333 14V8.66667C13.3333 8.29848 13.6318 8 14 8C14.3682 8 14.6666 8.29848 14.6666 8.66667V14C14.6666 14.5304 14.4559 15.0391 14.0809 15.4142C13.7058 15.7893 13.1971 16 12.6666 16H3.33331C2.80288 16 2.29417 15.7893 1.9191 15.4142C1.54403 15.0391 1.33331 14.5304 1.33331 14V8.66667C1.33331 8.29848 1.63179 8 1.99998 8Z" fill="#202327"/>
<path fill-rule="evenodd" clip-rule="evenodd" d="M0 4C0 3.63181 0.298477 3.33333 0.666667 3.33333H15.3333C15.7015 3.33333 16 3.63181 16 4V6.66667C16 7.03486 15.7015 7.33333 15.3333 7.33333H0.666667C0.298477 7.33333 0 7.03486 0 6.66667V4ZM1.33333 4.66667V6H14.6667V4.66667H1.33333Z" fill="#202327"/>
<path fill-rule="evenodd" clip-rule="evenodd" d="M7.99998 3.33333C8.36817 3.33333 8.66665 3.63181 8.66665 4V15.3333C8.66665 15.7015 8.36817 16 7.99998 16C7.63179 16 7.33331 15.7015 7.33331 15.3333V4C7.33331 3.63181 7.63179 3.33333 7.99998 3.33333Z" fill="#202327"/>
</g>
<defs>
<clipPath id="clip0_3_3346">
<rect width="16" height="16" fill="white"/>
</clipPath>
</defs>
</svg>

<svg xmlns="http://www.w3.org/2000/svg" viewBox="0 0 16 16" class="sageicon"><path fill-rule="evenodd" d="M4.423 1.334a1.058 1.058 0 0 0-1.09 1 1.058 1.058 0 0 0 1.111 1h2.573a5.514 5.514 0 0 0-.362-.628c-.505-.751-1.218-1.372-2.21-1.372h-.022ZM8 4l.642-.179A.667.667 0 0 1 8 4.667H4.454A2.391 2.391 0 0 1 2 2.357l.667-.023L2 2.312A2.391 2.391 0 0 1 4.455.001c1.63.004 2.692 1.048 3.306 1.961a7.147 7.147 0 0 1 .876 1.843l.003.011.001.004v.002L8 4.001Zm-.642.18Z"/><path fill-rule="evenodd" d="M12.332 1.62a1.058 1.058 0 0 0-.777-.286c-.993 0-1.706.62-2.21 1.372-.144.214-.265.43-.363.628h2.593a1.058 1.058 0 0 0 1.09-1 1.058 1.058 0 0 0-.332-.715ZM8 4l-.643-.178V3.82l.002-.004.003-.01a2.813 2.813 0 0 1 .05-.16 7.147 7.147 0 0 1 .826-1.684C8.852 1.05 9.914.005 11.545.001a2.391 2.391 0 0 1 2.454 2.355 2.391 2.391 0 0 1-2.454 2.311H8a.667.667 0 0 1-.643-.845L8 4.001ZM2 8c.368 0 .667.299.667.667V14a.667.667 0 0 0 .666.667h9.333a.666.666 0 0 0 .667-.667V8.667a.667.667 0 0 1 1.333 0V14a2 2 0 0 1-2 2H3.333a2 2 0 0 1-2-2V8.667C1.333 8.3 1.632 8 2 8Z"/><path fill-rule="evenodd" d="M0 4c0-.368.298-.666.667-.666h14.665c.369 0 .667.298.667.667v2.666a.667.667 0 0 1-.667.667H.668A.667.667 0 0 1 0 6.667V4.001Zm1.333.667v1.334h13.333V4.667H1.333Z"/><path fill-rule="evenodd" d="M8 3.334c.368 0 .666.298.666.667v11.332a.667.667 0 0 1-1.333 0V4.001c0-.369.298-.667.667-.667Z"/></svg>
